src/assets/img/partners/accessnow.svg

<svg clip-rule="evenodd" fill-rule="evenodd" stroke-linejoin="round" stroke-miterlimit="2" viewBox="0 0 351 67" xmlns="http://www.w3.org/2000/svg" xmlns:xlink="http://www.w3.org/1999/xlink"><clipPath id="a"><path clip-rule="evenodd" d="m0 0h301v58h-301z"/></clipPath><g transform="scale(1.16611 1.15517)"><path d="m0 0h301v58h-301z" fill="none"/><g clip-path="url(#a)"><g fill-rule="nonzero" transform="scale(.85755 .865672)"><path d="m94.06 17c-5.37 0-8.46 1-11.6 4.44l5.12 5c1.67-1.91 3.09-2.65 6.18-2.65 4.26 0 6 1.55 6 5.07v1.6h-7.6c-7.47 0-11 4.2-11 9.32-.082 2.658.868 5.246 2.65 7.22 1.92 1.91 4.57 2.84 8.21 2.84s5.74-.93 7.9-3.09v2.78h7.84v-21.15c0-7.54-4.69-11.38-13.7-11.38zm5.68 20.7c0 2-.31 3.27-1.18 4.07-1.42 1.35-2.84 1.54-5.06 1.54-3.15 0-4.63-1.48-4.63-3.7s1.61-3.61 4.51-3.61h6.36zm25.32 12.22c-6.42 0-14.38-3.45-14.38-16.48s7.97-16.44 14.38-16.44c3.999-.18 7.882 1.4 10.62 4.32l-5.43 5.43c-1.66-1.79-3.09-2.53-5.18-2.53-1.769-.067-3.468.714-4.57 2.1-1.24 1.54-1.79 3.7-1.79 7.1s.55 5.62 1.79 7.15c1.1 1.389 2.8 2.17 4.57 2.1 2.1 0 3.52-.74 5.18-2.53l5.43 5.37c-2.727 2.944-6.61 4.553-10.62 4.4zm25.29 0c-6.42 0-14.38-3.45-14.38-16.48s7.96-16.44 14.38-16.44c4.012-.184 7.909 1.404 10.65 4.34l-5.43 5.43c-1.66-1.79-3.09-2.53-5.18-2.53-1.769-.067-3.468.714-4.57 2.1-1.24 1.54-1.79 3.7-1.79 7.1s.55 5.62 1.79 7.15c1.1 1.389 2.8 2.17 4.57 2.1 2.1 0 3.52-.74 5.18-2.53l5.43 5.37c-2.737 2.945-6.633 4.547-10.65 4.38zm38.71-17.52c0-8.84-5.06-15.4-14.06-15.4-8.33 0-14 5.92-14 16.41 0 13 7.28 16.48 14.88 16.48 5.8 0 9-1.79 12.22-5.06l-4.88-4.75c-1.825 2.079-4.52 3.189-7.28 3-4.5 0-7-3-7-7.15h20.13zm-20.13-1.92c.012-1.188.264-2.362.74-3.45 1.013-2.033 3.098-3.324 5.37-3.324s4.357 1.291 5.37 3.324c.477 1.088.729 2.262.74 3.45zm35.49 19.44c-5.06 0-9.63-.56-13.7-4.63l5.28-5.29c2.65 2.65 6.11 3 8.58 3 2.78 0 5.68-.92 5.68-3.33 0-1.6-.87-2.72-3.39-3l-5.06-.5c-5.8-.56-9.38-3.08-9.38-9 0-6.66 5.86-10.24 12.4-10.24 5 0 9.2.86 12.28 3.76l-4.94 5c-1.85-1.66-4.69-2.16-7.47-2.16-3.21 0-4.57 1.48-4.57 3.09 0 1.17.49 2.53 3.33 2.77l5.06.49c6.36.62 9.57 4 9.57 9.45-.02 7.19-6.09 10.58-13.66 10.58zm28.33 0c-5.06 0-9.63-.56-13.71-4.63l5.25-5.29c2.65 2.65 6.11 3 8.58 3 2.78 0 5.68-.92 5.68-3.33 0-1.6-.87-2.72-3.39-3l-5.06-.5c-5.81-.56-9.38-3.08-9.38-9 0-6.66 5.86-10.24 12.4-10.24 5 0 9.2.86 12.28 3.76l-4.94 5c-1.85-1.66-4.69-2.16-7.47-2.16-3.21 0-4.57 1.48-4.57 3.09 0 1.17.49 2.53 3.33 2.77l5.06.49c6.36.62 9.57 4 9.57 9.45.01 7.19-6.04 10.58-13.63 10.58zm38.63-.45v-19.64c0-5.64-3-8.49-7.84-8.49s-7.91 2.92-7.91 8.49v19.63h-4.63v-31.88h4.67v3.5c2.254-2.557 5.533-3.983 8.94-3.89 3.016-.146 5.965.937 8.17 3 2.22 2.18 3.22 5.16 3.22 8.81v20.46zm30.39-28.65c-5.103-4.813-13.177-4.813-18.28 0-3.24 3.31-3.89 7.78-3.89 12.7s.65 9.4 3.89 12.7c5.103 4.813 13.177 4.813 18.28 0 3.24-3.31 3.89-7.78 3.89-12.7s-.66-9.4-3.89-12.7zm-3.3 22.55c-1.555 1.522-3.655 2.361-5.83 2.33-2.158.034-4.241-.807-5.77-2.33-2.33-2.33-2.59-6.29-2.59-9.85s.26-7.52 2.59-9.85c1.529-1.523 3.612-2.364 5.77-2.33 2.175-.031 4.275.808 5.83 2.33 2.33 2.33 2.53 6.33 2.53 9.85s-.2 7.48-2.53 9.85zm42.44 6.09h-4.34l-8.36-24.76-8.3 24.76h-4.34l-10.11-31.88h5.05l7.32 25.6 8.36-25.6h4l8.43 25.6 7.26-25.6h5.12z"/><path d="m5.66 43.16c-1.593-.253-3.17-.55-4.73-.89 2.756 11.561 11.315 20.904 22.59 24.66v-.36c0-2.627.841-5.186 2.4-7.3-1.847-2.12-3.576-4.34-5.18-6.65-1.364.599-2.837.908-4.327.908-5.755 0-10.544-4.617-10.753-10.368zm43.8-3.44c4.875 3.817 10.037 7.254 15.44 10.28 2.495-4.846 3.795-10.219 3.79-15.67-.016-2.227-.247-4.447-.69-6.63-2.251 1.701-4.587 3.287-7 4.75-1.042 3.805-2.379 7.523-4 11.12l-1.21-.81c1.32-3.012 2.44-6.109 3.35-9.27-9.846 5.583-20.742 9.07-32 10.24-.313 3.397-2.223 6.451-5.14 8.22 1.501 2.153 3.113 4.226 4.83 6.21 3.725-4.029 9.717-5.104 14.61-2.62 1.562-4.664 2.834-9.419 3.81-14.24l1.57-.55c-1.028 5.259-2.404 10.444-4.12 15.52 1.218.807 2.285 1.823 3.15 3 3.13-3.911 5.86-8.125 8.15-12.58l1.21.79c-2.38 4.638-5.228 9.021-8.5 13.08.892 1.601 1.415 3.381 1.53 5.21 6.746-2.993 12.356-8.073 16-14.49-5.72-3.223-11.171-6.902-16.3-11zm13.9-21.93c-.274 4.273-.91 8.515-1.9 12.68 2.153-1.333 4.237-2.77 6.25-4.31-.746-3.041-1.906-5.965-3.45-8.69-.287.147-.594.255-.91.32zm-56.36 4.72c-2 1.06-4 2.2-5.92 3.42-1.234 4.84-1.398 9.891-.48 14.8 1.673.38 3.37.713 5.09 1 .331-3.476 2.332-6.582 5.36-8.32-2.18-6.509-3.465-13.285-3.82-20.14-2.474 3.173-4.37 6.758-5.6 10.59 1.66-.993 3.35-1.947 5.07-2.86.09.52.17 1 .3 1.51zm52.1-8.25c-.012-.166-.012-.334 0-.5-2.22-.333-4.467-.577-6.74-.73-.321 1.91-1.548 3.552-3.29 4.4-.001 6.15-.465 12.29-1.39 18.37l-1.55.6-.49.19-1.56.56c-4.872-4.208-9.406-8.792-13.56-13.71-1.214.756-2.616 1.156-4.047 1.156-4.012 0-7.379-3.152-7.643-7.156-2.667.92-5.283 1.963-7.85 3.13-.08-.49-.16-1-.23-1.47 2.654-1.2 5.368-2.265 8.13-3.19.249-1.823 1.148-3.496 2.53-4.71-1.413-2.18-2.747-4.403-4-6.67-3.307 1.862-6.284 4.258-8.81 7.09.222 7.188 1.485 14.305 3.75 21.13 1.292-.528 2.673-.799 4.069-.799 5.74 0 10.521 4.593 10.751 10.329 11.491-1.212 22.588-4.878 32.54-10.75 1.165-4.501 1.904-9.101 2.21-13.74-1.665-.341-2.871-1.82-2.87-3.52zm-6.62-2.66c2.413.167 4.8.427 7.16.78.153-.255.338-.491.55-.7-3.307-3.751-7.392-6.738-11.97-8.75.14 1.16.263 2.327.37 3.5 2.178.829 3.684 2.855 3.85 5.18zm-6 6.44c-2.917.002-5.434-2.124-5.92-5-2.373.16-4.707.42-7 .78 1.331 2.999.592 6.536-1.83 8.75 4.278 5.04 8.96 9.722 14 14l.49-.19c.976-6.112 1.481-12.29 1.51-18.48-.422.081-.851.114-1.28.1zm-13.75-5.56c2.54-.407 5.117-.697 7.73-.87.225-3.127 2.865-5.578 6-5.57.217-.011.433-.011.65 0-.12-1.267-.26-2.523-.42-3.77-9.14-3.513-19.36-2.952-28.06 1.54 1.247 2.213 2.557 4.387 3.93 6.52 3.41-2.033 7.865-1.09 10.16 2.15z" fill="#88bd56"/></g></g></g></svg>

<?xml version="1.0" encoding="UTF-8" standalone="no"?>
<!DOCTYPE svg PUBLIC "-//W3C//DTD SVG 1.1//EN" "http://www.w3.org/Graphics/SVG/1.1/DTD/svg11.dtd">
<svg width="100%" height="100%" viewBox="0 0 351 67" version="1.1" xmlns="http://www.w3.org/2000/svg" xmlns:xlink="http://www.w3.org/1999/xlink" xml:space="preserve" xmlns:serif="http://www.serif.com/" style="fill-rule:evenodd;clip-rule:evenodd;stroke-linejoin:round;stroke-miterlimit:2;">
    <g id="Artboard1" transform="matrix(1.16611,0,0,1.15517,0,0)">
        <rect x="0" y="0" width="301" height="58" style="fill:none;"/>
        <clipPath id="_clip1">
            <rect x="0" y="0" width="301" height="58"/>
        </clipPath>
        <g clip-path="url(#_clip1)">
            <g id="icon-logo" transform="matrix(0.85755,0,0,0.865672,0,0)">
                <path d="M94.06,17C88.69,17 85.6,18 82.46,21.44L87.58,26.44C89.25,24.53 90.67,23.79 93.76,23.79C98.02,23.79 99.76,25.34 99.76,28.86L99.76,30.46L92.16,30.46C84.69,30.46 81.16,34.66 81.16,39.78C81.078,42.438 82.028,45.026 83.81,47C85.73,48.91 88.38,49.84 92.02,49.84C95.66,49.84 97.76,48.91 99.92,46.75L99.92,49.53L107.76,49.53L107.76,28.38C107.76,20.84 103.07,17 94.06,17ZM99.74,37.7C99.74,39.7 99.43,40.97 98.56,41.77C97.14,43.12 95.72,43.31 93.5,43.31C90.35,43.31 88.87,41.83 88.87,39.61C88.87,37.39 90.48,36 93.38,36L99.74,36L99.74,37.7ZM125.06,49.92C118.64,49.92 110.68,46.47 110.68,33.44C110.68,20.41 118.65,17 125.06,17C129.059,16.82 132.942,18.4 135.68,21.32L130.25,26.75C128.59,24.96 127.16,24.22 125.07,24.22C123.301,24.153 121.602,24.934 120.5,26.32C119.26,27.86 118.71,30.02 118.71,33.42C118.71,36.82 119.26,39.04 120.5,40.57C121.6,41.959 123.3,42.74 125.07,42.67C127.17,42.67 128.59,41.93 130.25,40.14L135.68,45.51C132.953,48.454 129.07,50.063 125.06,49.91L125.06,49.92ZM150.35,49.92C143.93,49.92 135.97,46.47 135.97,33.44C135.97,20.41 143.93,17 150.35,17C154.362,16.816 158.259,18.404 161,21.34L155.57,26.77C153.91,24.98 152.48,24.24 150.39,24.24C148.621,24.173 146.922,24.954 145.82,26.34C144.58,27.88 144.03,30.04 144.03,33.44C144.03,36.84 144.58,39.06 145.82,40.59C146.92,41.979 148.62,42.76 150.39,42.69C152.49,42.69 153.91,41.95 155.57,40.16L161,45.53C158.263,48.475 154.367,50.077 150.35,49.91L150.35,49.92ZM189.06,32.4C189.06,23.56 184,17 175,17C166.67,17 161,22.92 161,33.41C161,46.41 168.28,49.89 175.88,49.89C181.68,49.89 184.88,48.1 188.1,44.83L183.22,40.08C181.395,42.159 178.7,43.269 175.94,43.08C171.44,43.08 168.94,40.08 168.94,35.93L189.07,35.93L189.06,32.4ZM168.93,30.48C168.942,29.292 169.194,28.118 169.67,27.03C170.683,24.997 172.768,23.706 175.04,23.706C177.312,23.706 179.397,24.997 180.41,27.03C180.887,28.118 181.139,29.292 181.15,30.48L168.93,30.48ZM204.42,49.92C199.36,49.92 194.79,49.36 190.72,45.29L196,40C198.65,42.65 202.11,43 204.58,43C207.36,43 210.26,42.08 210.26,39.67C210.26,38.07 209.39,36.95 206.87,36.67L201.81,36.17C196.01,35.61 192.43,33.09 192.43,27.17C192.43,20.51 198.29,16.93 204.83,16.93C209.83,16.93 214.03,17.79 217.11,20.69L212.17,25.69C210.32,24.03 207.48,23.53 204.7,23.53C201.49,23.53 200.13,25.01 200.13,26.62C200.13,27.79 200.62,29.15 203.46,29.39L208.52,29.88C214.88,30.5 218.09,33.88 218.09,39.33C218.07,46.52 212,49.91 204.43,49.91L204.42,49.92ZM232.75,49.92C227.69,49.92 223.12,49.36 219.04,45.29L224.29,40C226.94,42.65 230.4,43 232.87,43C235.65,43 238.55,42.08 238.55,39.67C238.55,38.07 237.68,36.95 235.16,36.67L230.1,36.17C224.29,35.61 220.72,33.09 220.72,27.17C220.72,20.51 226.58,16.93 233.12,16.93C238.12,16.93 242.32,17.79 245.4,20.69L240.46,25.69C238.61,24.03 235.77,23.53 232.99,23.53C229.78,23.53 228.42,25.01 228.42,26.62C228.42,27.79 228.91,29.15 231.75,29.39L236.81,29.88C243.17,30.5 246.38,33.88 246.38,39.33C246.39,46.52 240.34,49.91 232.75,49.91L232.75,49.92ZM271.38,49.47L271.38,29.83C271.38,24.19 268.38,21.34 263.54,21.34C258.7,21.34 255.63,24.26 255.63,29.83L255.63,49.46L251,49.46L251,17.58L255.67,17.58L255.67,21.08C257.924,18.523 261.203,17.097 264.61,17.19C267.626,17.044 270.575,18.127 272.78,20.19C275,22.37 276,25.35 276,29L276,49.46L271.38,49.47ZM301.77,20.82C296.667,16.007 288.593,16.007 283.49,20.82C280.25,24.13 279.6,28.6 279.6,33.52C279.6,38.44 280.25,42.92 283.49,46.22C288.593,51.033 296.667,51.033 301.77,46.22C305.01,42.91 305.66,38.44 305.66,33.52C305.66,28.6 305,24.12 301.77,20.82ZM298.47,43.37C296.915,44.892 294.815,45.731 292.64,45.7C290.482,45.734 288.399,44.893 286.87,43.37C284.54,41.04 284.28,37.08 284.28,33.52C284.28,29.96 284.54,26 286.87,23.67C288.399,22.147 290.482,21.306 292.64,21.34C294.815,21.309 296.915,22.148 298.47,23.67C300.8,26 301,30 301,33.52C301,37.04 300.8,41 298.47,43.37ZM340.91,49.46L336.57,49.46L328.21,24.7L319.91,49.46L315.57,49.46L305.46,17.58L310.51,17.58L317.83,43.18L326.19,17.58L330.19,17.58L338.62,43.18L345.88,17.58L351,17.58L340.91,49.46Z" style="fill-rule:nonzero;"/>
                <path d="M5.66,43.16C4.067,42.907 2.49,42.61 0.93,42.27C3.686,53.831 12.245,63.174 23.52,66.93L23.52,66.57C23.52,63.943 24.361,61.384 25.92,59.27C24.073,57.15 22.344,54.93 20.74,52.62C19.376,53.219 17.903,53.528 16.413,53.528C10.658,53.528 5.869,48.911 5.66,43.16ZM49.46,39.72C54.335,43.537 59.497,46.974 64.9,50C67.395,45.154 68.695,39.781 68.69,34.33C68.674,32.103 68.443,29.883 68,27.7C65.749,29.401 63.413,30.987 61,32.45C59.958,36.255 58.621,39.973 57,43.57L55.79,42.76C57.11,39.748 58.23,36.651 59.14,33.49C49.294,39.073 38.398,42.56 27.14,43.73C26.827,47.127 24.917,50.181 22,51.95C23.501,54.103 25.113,56.176 26.83,58.16C30.555,54.131 36.547,53.056 41.44,55.54C43.002,50.876 44.274,46.121 45.25,41.3L46.82,40.75C45.792,46.009 44.416,51.194 42.7,56.27C43.918,57.077 44.985,58.093 45.85,59.27C48.98,55.359 51.71,51.145 54,46.69L55.21,47.48C52.83,52.118 49.982,56.501 46.71,60.56C47.602,62.161 48.125,63.941 48.24,65.77C54.986,62.777 60.596,57.697 64.24,51.28C58.52,48.057 53.069,44.378 47.94,40.28L49.46,39.72ZM63.36,17.79C63.086,22.063 62.45,26.305 61.46,30.47C63.613,29.137 65.697,27.7 67.71,26.16C66.964,23.119 65.804,20.195 64.26,17.47C63.973,17.617 63.666,17.725 63.35,17.79L63.36,17.79ZM7,22.51C5,23.57 3,24.71 1.08,25.93C-0.154,30.77 -0.318,35.821 0.6,40.73C2.273,41.11 3.97,41.443 5.69,41.73C6.021,38.254 8.022,35.148 11.05,33.41C8.87,26.901 7.585,20.125 7.23,13.27C4.756,16.443 2.86,20.028 1.63,23.86C3.29,22.867 4.98,21.913 6.7,21C6.79,21.52 6.87,22 7,22.51ZM59.1,14.26C59.088,14.094 59.088,13.926 59.1,13.76C56.88,13.427 54.633,13.183 52.36,13.03C52.039,14.94 50.812,16.582 49.07,17.43C49.069,23.58 48.605,29.72 47.68,35.8L46.13,36.4L45.64,36.59L44.08,37.15C39.208,32.942 34.674,28.358 30.52,23.44C29.306,24.196 27.904,24.596 26.473,24.596C22.461,24.596 19.094,21.444 18.83,17.44C16.163,18.36 13.547,19.403 10.98,20.57C10.9,20.08 10.82,19.57 10.75,19.1C13.404,17.9 16.118,16.835 18.88,15.91C19.129,14.087 20.028,12.414 21.41,11.2C19.997,9.02 18.663,6.797 17.41,4.53C14.103,6.392 11.126,8.788 8.6,11.62C8.822,18.808 10.085,25.925 12.35,32.75C13.642,32.222 15.023,31.951 16.419,31.951C22.159,31.951 26.94,36.544 27.17,42.28C38.661,41.068 49.758,37.402 59.71,31.53C60.875,27.029 61.614,22.429 61.92,17.79C60.255,17.449 59.049,15.97 59.05,14.27L59.1,14.26ZM52.48,11.6C54.893,11.767 57.28,12.027 59.64,12.38C59.793,12.125 59.978,11.889 60.19,11.68C56.883,7.929 52.798,4.942 48.22,2.93C48.36,4.09 48.483,5.257 48.59,6.43C50.768,7.259 52.274,9.285 52.44,11.61L52.48,11.6ZM46.48,18.04C43.563,18.042 41.046,15.916 40.56,13.04C38.187,13.2 35.853,13.46 33.56,13.82C34.891,16.819 34.152,20.356 31.73,22.57C36.008,27.61 40.69,32.292 45.73,36.57L46.22,36.38C47.196,30.268 47.701,24.09 47.73,17.9C47.308,17.981 46.879,18.014 46.45,18L46.48,18.04ZM32.73,12.48C35.27,12.073 37.847,11.783 40.46,11.61C40.685,8.483 43.325,6.032 46.46,6.04C46.677,6.029 46.893,6.029 47.11,6.04C46.99,4.773 46.85,3.517 46.69,2.27C37.55,-1.243 27.33,-0.682 18.63,3.81C19.877,6.023 21.187,8.197 22.56,10.33C25.97,8.297 30.425,9.24 32.72,12.48L32.73,12.48Z" style="fill:rgb(136,189,86);fill-rule:nonzero;"/>
            </g>
        </g>
    </g>
</svg>
